src/images/smile.svg

<svg width="140" height="139" viewBox="0 0 140 139" fill="none" xmlns="http://www.w3.org/2000/svg">
<circle cx="69.7811" cy="69.0057" r="66.6797" fill="#FFC900"/>
<path d="M129.66 33.8261C120.09 17.9028 104.865 6.64465 86.792 2.12234C68.7191 -2.39998 49.9591 0.358039 33.9687 9.88762C17.9783 19.4142 6.67265 34.5729 2.13128 52.5729C-2.41009 70.5699 0.359547 89.2513 9.92929 105.172C19.499 121.095 34.7216 132.356 52.7945 136.878C70.8673 141.401 89.6274 138.64 105.618 129.11C121.608 119.583 132.914 104.425 137.455 86.4278C141.997 68.4278 139.227 49.7465 129.657 33.8261H129.66ZM54.0613 131.868C19.5259 123.228 -1.51078 88.2218 7.16563 53.8344C15.842 19.441 50.9959 -1.50444 85.5282 7.13556C120.061 15.7756 141.1 50.7789 132.424 85.1693C123.747 119.557 88.5936 140.508 54.0613 131.868Z" fill="#F3583F"/>
<path d="M58.8771 115.657C33.4261 109.279 17.9191 83.4372 24.3131 58.0525C24.6616 56.6713 26.0672 55.8307 27.4521 56.1782C28.8369 56.5258 29.6797 57.9278 29.3312 59.309C23.6311 81.9372 37.4525 104.969 60.1368 110.655C82.824 116.34 105.916 102.554 111.616 79.9292C111.965 78.548 113.371 77.7074 114.755 78.0549C116.14 78.4025 116.983 79.8045 116.635 81.1857C110.241 106.57 84.331 122.037 58.88 115.66L58.8771 115.657Z" fill="#F3583F"/>
<path d="M71.3865 44.266C74.1117 33.4164 72.45 23.6487 67.675 22.4493C62.8999 21.2499 56.8198 29.0729 54.0945 39.9225C51.3693 50.7722 53.031 60.5398 57.806 61.7392C62.5811 62.9386 68.6612 55.1156 71.3865 44.266Z" fill="#F3583F"/>
<path d="M99.2011 51.5889C101.926 40.7393 100.265 30.9716 95.4896 29.7722C90.7146 28.5728 84.6344 36.3959 81.9092 47.2455C79.184 58.0951 80.8457 67.8627 85.6207 69.0621C90.3957 70.2615 96.4759 62.4385 99.2011 51.5889Z" fill="#F3583F"/>
</svg>

<svg width="140" height="139" fill="none" xmlns="http://www.w3.org/2000/svg"><circle cx="69.781" cy="69.006" r="66.68" fill="#FFC900"/><path d="M129.66 33.826c-9.57-15.923-24.795-27.181-42.868-31.704C68.719-2.4 49.959.358 33.969 9.888 17.979 19.414 6.673 34.573 2.13 52.573-2.41 70.57.36 89.25 9.93 105.172c9.57 15.923 24.793 27.184 42.865 31.706 18.073 4.523 36.833 1.762 52.824-7.768 15.99-9.527 27.296-24.685 31.837-42.682 4.542-18 1.772-36.681-7.798-52.602h.003zm-75.599 98.042C19.526 123.228-1.51 88.222 7.166 53.834c8.676-34.393 43.83-55.338 78.362-46.698 34.533 8.64 55.572 43.643 46.896 78.033-8.677 34.388-43.83 55.339-78.363 46.699z" fill="#F3583F"/><path d="M58.877 115.657c-25.45-6.378-40.958-32.22-34.564-57.604a2.588 2.588 0 0 1 3.14-1.875 2.58 2.58 0 0 1 1.878 3.131c-5.7 22.628 8.122 45.66 30.806 51.346 22.687 5.685 45.779-8.101 51.479-30.726a2.59 2.59 0 0 1 3.139-1.874 2.581 2.581 0 0 1 1.88 3.13c-6.394 25.385-32.304 40.852-57.755 34.475l-.003-.003zM71.386 44.266c2.726-10.85 1.064-20.617-3.711-21.817-4.775-1.2-10.855 6.624-13.58 17.473-2.726 10.85-1.064 20.618 3.711 21.817 4.775 1.2 10.855-6.623 13.58-17.473zM99.201 51.589c2.725-10.85 1.064-20.617-3.711-21.817-4.775-1.2-10.856 6.624-13.58 17.474-2.726 10.85-1.064 20.617 3.71 21.816 4.776 1.2 10.856-6.623 13.581-17.473z" fill="#F3583F"/></svg>
